X:1
T:The Moving Cloud
R:reel
M:4/4
L:1/8
K:G
G3E|:DGBG EGBG|DGBG AGEG|cEAc Bdgb|aged cEGE|
|~D2DG ~E2EG|DGBG AGEG|cEAc BDGB|AGAB G2z2:|
|:~d2bd adgd|~d2bd adgd|~e2c'e beae|~e2c'e beae|
|~d2bd adgd|~d2bd adgd|c'bac' bage|dBAd G2z2:|
|:Bd~d2 edBA|Bd~d2 edBd|ce~e2 fe~e2|gefd edBA|
|Bd~d2 edBA|Bd~d2 edBd|cDBD AFGE|FDEF G2z2:|